X:0070
T:Sr. Alexr. Mc.Donald's Reel.
M:2/4
L:1/8
Q:1/4=120
I: :: ::
% D E ^F G A B d e ^f g a
Z:Jack Campin * www.campin.me.uk * 2009
K:D
 FA-Af/g/|afed |gfed     |B>dBA|FAAf/g/|afed |(e/f/g) (f/g/a)|e2 d2:|
(FAA)B   |A>BAF|G/G/G G>A|G>ABG|FAAB   |A>BAF| GAFd          |E2 D2:|
<end>
<start>
